X:1
T:Title
%%score { ( 1 4 ) | ( 2 3 ) }
L:1/8
Q:1/4=100
M:3/4
K:F
V:1 treble nm="Grand Piano"
V:4 treble 
V:2 bass 
V:3 bass 
V:1
 [A,C]2 D2 C2 | z2 F2 A2 | A2 G2 D2 | F4 E2 | F2 G2 [CFA]2 | [CGc]4 [CFA]2 | G2 z2 [=B,FG]2 | %7
w: M.~E.~Gill * *|||||||
 [CEG]6 | z2 F2 A2 | c4 c2 | c2 z2 [D^FA]2 | [Ac]2 B2 [CA]G | z2 F2 [CFA]2 | [=B,FA]4 [B,FG]2 | %14
w: |||||||
 [CEA]4 [B,EG]2 | [A,CF]6 | c2- [G,Ec]2 [B,c]-[B,Gc] | c4 z2 | d2- [A,^Fd]2 [Cd]-[CAd] | d4 z2 | %20
w: ||||||
 e3 d c2 | [Af]2 [FA]2 [FB]2 | c3 d z C | A6 | B2 F2 G2 | A4 (3[C-F]C[B,D] | z2 z2 G2 | F6 |] %28
w: ||||||||
V:2
 z2 B,2 [F,A,]2 | [F,A,]4 [F,CF]2 | [B,,B,]4 [B,,F,]2 | [C,A,C]4 [C,G,C]2 | A,2 z2 z2 | E,4 F,2 | %6
 z2 A2 F,2 | C,6 | [F,A,]4 [F,CF]2 | [F,A,F]4 [F,A,F]2 | z2[K:treble] d2 D,2 | z2 G2[K:bass] z B, | %12
 [C,A,]4 C,2 | D,4 G,,2 | C,4 C,2 | F,6 | [C,G,]2 C,2 D,E, | [F,A,F]4 z2 | [D,A,]2 D,2 E,^F, | %19
 [G,B,G]4 z2 | G4 z2 | [F,C]4 [D,F,]2 | [C,G,]4 .[C,G,]2 | [F,CF]6 | F2 z2 z2 | %25
 [F,CF]4 (3A,,-[A,,E]B,, | [C,F,A,]4 .[C,E,C]2 | [F,A,C]6 |] %28
V:3
 F,4 z2 | x6 | x6 | x6 | [F,C]2- [F,B,C]2 F,2 | x6 | D,4 z2 | x6 | x6 | x6 | [D,A,]4[K:treble] z2 | %11
 G,4[K:bass] B,,2 | x6 | x6 | x6 | x6 | x6 | x6 | x6 | x6 | C3- [CB] [CB]2 | x6 | x6 | x6 | %24
 [F,D]4 [F,^CF]2 | x6 | x6 | x6 |] %28
V:4
 x6 | C4 z2 | D4 z2 | x6 | x6 | x6 | [=B,F]4 z2 | x6 | C4 z2 | x6 | ^F4 z2 | D4 D2 | C4 z2 | x6 | %14
 x6 | x6 | E2 z2 .F2 | x6 | ^F2 z2 .G2 | x6 | x6 | x6 | E4 [EB]2 | x6 | x6 | z2 z2 F,2 | C4 z B, | %27
 x6 |] %28

